MonoIcons/scalable/status/orientation-portrait-left-symbolic.svg

<?xml version="1.0" encoding="UTF-8"?>
<svg height="16px" viewBox="0 0 16 16" width="16px" xmlns="http://www.w3.org/2000/svg">
    <path d="m 2.992188 2.167969 c 0 -0.617188 0.496093 -1.113281 1.113281 -1.113281 h 7.84375 c 0.617187 0 1.113281 0.496093 1.113281 1.113281 v 11.738281 c 0 0.617188 -0.496094 1.113281 -1.113281 1.113281 h -7.84375 c -0.617188 0 -1.113281 -0.496093 -1.113281 -1.113281 z m 3 5.839843 l 4.007812 3.992188 v -8 z m 0 0" fill="#2e3436"/>
</svg>

<svg width="16" height="16" viewBox="0 0 16 16" fill="none" xmlns="http://www.w3.org/2000/svg">
<path d="M2.99219 2.16797C2.99219 1.55078 3.48828 1.05469 4.10547 1.05469H11.9492C12.5664 1.05469 13.0625 1.55078 13.0625 2.16797V13.9062C13.0625 14.5234 12.5664 15.0195 11.9492 15.0195H4.10547C3.48828 15.0195 2.99219 14.5234 2.99219 13.9062V2.16797ZM5.99219 8.00781L10 12V4L5.99219 8.00781Z" fill="#2E3436"/>
</svg>
